packages/kaspersky-hexa-ui-icons/src/iconsSVGs/24/Hand1.svg

<svg width="24" height="24" viewBox="0 0 24 24" fill="none" xmlns="http://www.w3.org/2000/svg">
<path fill-rule="evenodd" clip-rule="evenodd" d="M20 15V8.5C20 7.11929 18.8807 6 17.5 6C17.3288 6 17.1616 6.01722 17 6.05001V5.5C17 4.11929 15.8807 3 14.5 3C14.315 3 14.1347 3.0201 13.9611 3.05823C13.7525 1.88823 12.73 1 11.5 1C10.27 1 9.24752 1.88823 9.03891 3.05823C8.86534 3.0201 8.68502 3 8.5 3C7.11929 3 6 4.11929 6 5.5V8.05001C5.83844 8.01722 5.67123 8 5.5 8C4.11929 8 3 9.11929 3 10.5V15C3 19.4183 6.58172 23 11 23H12C16.4183 23 20 19.4183 20 15ZM8.5 5C8.77614 5 9 5.22386 9 5.5V11C9 11.5523 9.44772 12 10 12C10.5523 12 11 11.5523 11 11V3.5C11 3.22386 11.2239 3 11.5 3C11.7761 3 12 3.22386 12 3.5V11C12 11.5523 12.4477 12 13 12C13.5523 12 14 11.5523 14 11V5.5C14 5.22386 14.2239 5 14.5 5C14.7761 5 15 5.22386 15 5.5V12C15 12.5523 15.4477 13 16 13C16.5523 13 17 12.5523 17 12V8.5C17 8.22386 17.2239 8 17.5 8C17.7761 8 18 8.22386 18 8.5V15C18 18.3137 15.3137 21 12 21H11C7.68629 21 5 18.3137 5 15V10.5C5 10.2239 5.22386 10 5.5 10C5.77614 10 6 10.2239 6 10.5V14C6 14.5523 6.44772 15 7 15C7.02485 15 7.16935 15.0186 7.41031 15.1505C7.6363 15.2743 7.89335 15.4693 8.13506 15.7352C8.61498 16.2631 9 17.03 9 18C9 18.5523 9.44772 19 10 19C10.5523 19 11 18.5523 11 18C11 16.47 10.385 15.2369 9.61494 14.3898C9.23165 13.9682 8.8012 13.632 8.37094 13.3963C8.25208 13.3313 8.12789 13.271 8 13.218V5.5C8 5.22386 8.22386 5 8.5 5Z" fill="black"/>
</svg>

<svg xmlns="http://www.w3.org/2000/svg" width="24" height="24" fill="none" viewBox="0 0 24 24"><path fill="#000" fill-rule="evenodd" d="M20 15V8.5C20 7.1193 18.8807 6 17.5 6c-.1712 0-.3384.0172-.5.05V5.5C17 4.1193 15.8807 3 14.5 3c-.185 0-.3653.0201-.5389.0582C13.7525 1.8882 12.73 1 11.5 1s-2.2525.8882-2.461 2.0582A2.5 2.5 0 0 0 8.5 3C7.1193 3 6 4.1193 6 5.5v2.55A2.5 2.5 0 0 0 5.5 8C4.1193 8 3 9.1193 3 10.5V15c0 4.4183 3.5817 8 8 8h1c4.4183 0 8-3.5817 8-8M8.5 5a.5.5 0 0 1 .5.5V11c0 .5523.4477 1 1 1s1-.4477 1-1V3.5a.5.5 0 0 1 1 0V11c0 .5523.4477 1 1 1s1-.4477 1-1V5.5a.5.5 0 0 1 1 0V12c0 .5523.4477 1 1 1s1-.4477 1-1V8.5a.5.5 0 0 1 1 0V15c0 3.3137-2.6863 6-6 6h-1c-3.3137 0-6-2.6863-6-6v-4.5a.5.5 0 0 1 1 0V14c0 .5523.4477 1 1 1 .0248 0 .1693.0186.4103.1505.226.1238.483.3188.7248.5847C8.615 16.2631 9 17.03 9 18c0 .5523.4477 1 1 1s1-.4477 1-1c0-1.53-.615-2.7631-1.385-3.6102-.3834-.4216-.8138-.7578-1.244-.9935A3.8 3.8 0 0 0 8 13.218V5.5a.5.5 0 0 1 .5-.5" clip-rule="evenodd"/></svg>
